src/dsmComponents/Icons/swap-horizontal-16px.svg

<?xml version="1.0" encoding="UTF-8"?>
<svg width="16px" height="16px" viewBox="0 0 16 16" version="1.1" xmlns="http://www.w3.org/2000/svg" xmlns:xlink="http://www.w3.org/1999/xlink">
    <!-- Generator: Sketch 59.1 (86144) - https://sketch.com -->
    <title>swap-horizontal-16px</title>
    <desc>Created with Sketch.</desc>
    <defs>
        <path d="M11,8 L16,12 L11,16 L11,13 L3,13 C2.448,13 2,12.552 2,12 L2,12 L2.00673178,11.8834315 C2.06453061,11.3862857 2.48742857,11 3,11 L3,11 L11,11 L11,8 Z M5,0 L5,3 L13,3 C13.552,3 14,3.448 14,4 L14,4 L13.9932682,4.11656851 C13.9354694,4.61371429 13.5125714,5 13,5 L13,5 L5,5 L5,8 L0,4 L5,0 Z" id="path-1"></path>
    </defs>
    <g id="Final" stroke="none" stroke-width="1" fill="none" fill-rule="evenodd">
        <g id="All-Nucleo-Icons" transform="translate(-319.000000, -6422.000000)">
            <g id="Solo/Nucleo/16px/swap-horizontal" transform="translate(315.000000, 6418.000000)">
                <g id="swap-horizontal" transform="translate(4.000000, 4.000000)">
                    <g id="Colour/Default-Colour">
                        <mask id="mask-2" fill="white">
                            <use xlink:href="#path-1"></use>
                        </mask>
                        <g id="Mask" fill-rule="nonzero"></g>
                        <g id="colour/neutral/chia" mask="url(#mask-2)" fill="#737373">
                            <g transform="translate(-24.000000, -24.000000)" id="Colour">
                                <rect x="0" y="0" width="64" height="64"></rect>
                            </g>
                        </g>
                    </g>
                </g>
            </g>
        </g>
    </g>
</svg>

<svg width="16" height="16" xmlns="http://www.w3.org/2000/svg" xmlns:xlink="http://www.w3.org/1999/xlink"><defs><path d="M11 8l5 4-5 4v-3H3a1 1 0 01-1-1l.007-.117A1 1 0 013 11h8V8zM5 0v3h8a1 1 0 011 1l-.007.117A1 1 0 0113 5H5v3L0 4l5-4z" id="swap-horizontal-16px_svg__a"/></defs><use fill="#737373" xlink:href="#swap-horizontal-16px_svg__a" fill-rule="evenodd"/></svg>
